X: 1
T:Lazy Scottische
M:4/4
L:1/8
C:Taz Tarry
S:Copyright B.Tarry, 18th. May 1997
R:Schottische
K:D
A>G|F>GA>d f e3|c4A4|d>ef>d g f2|e4e4|!
d>ef>d g f3|c>de>c d B3|B>cd>e f2e2|1d6:|2d4d4||!
f>ed>c B A3|G4 E4|G>Bd>f gf3|e4 e4|f>ed>c BA3|!
g>fe>d c A3|B>cd>e f2e2|1d4 d4:|2d6||
